images/web.svg

<svg width="26" height="26" viewBox="0 0 26 26" fill="none" xmlns="http://www.w3.org/2000/svg">
<path fill-rule="evenodd" clip-rule="evenodd" d="M13.1207 1.7349L13.1211 1.73488L13.1217 1.73486L13.1254 1.73474L13.1321 1.73453C13.1422 1.73424 13.1588 1.73386 13.1814 1.7336C13.2266 1.73309 13.2961 1.73312 13.3874 1.73549C13.5702 1.74025 13.8397 1.75442 14.1764 1.79251C14.8506 1.86878 15.7896 2.04039 16.8386 2.42136C18.7528 3.11654 21.0385 4.50919 22.7648 7.31573H13.6703C13.4679 7.29429 13.2624 7.2833 13.0543 7.2833C12.8436 7.2833 12.6354 7.29457 12.4305 7.31656C12.4161 7.31702 12.4003 7.31766 12.383 7.31855C12.3051 7.32256 12.1977 7.33161 12.0656 7.35134C11.8014 7.3908 11.4379 7.47311 11.0156 7.64372C10.9205 7.68213 10.8227 7.72493 10.7226 7.77257C8.92857 8.56349 7.60893 10.2391 7.31197 12.2489C6.86204 11.4674 6.35909 10.5917 5.8778 9.75286C5.3356 8.80782 4.82156 7.9107 4.44307 7.24982L3.99044 6.45927L3.98699 6.45325C4.06633 6.33473 4.17553 6.18008 4.3161 5.99928C4.66182 5.55463 5.1955 4.95419 5.93945 4.34431C7.42299 3.12815 9.74934 1.86802 13.1181 1.73501L13.1196 1.73495L13.1202 1.73492L13.1207 1.7349ZM5.88835 12.0865L7.33094 14.6023C8.02733 17.0636 10.2782 18.8651 12.9466 18.8681C13.7659 18.8681 14.5458 18.6981 15.2534 18.3913C14.7962 19.1895 14.2808 20.0869 13.7873 20.9456C13.2402 21.8974 12.7205 22.8004 12.3376 23.4655L11.8794 24.2609L11.8761 24.2667C11.7334 24.2568 11.5443 24.2389 11.3167 24.2067C10.7569 24.1275 9.96734 23.962 9.06388 23.6169C7.26224 22.9288 4.99882 21.5241 3.18973 18.6387L3.18893 18.6375L3.18866 18.637L3.18856 18.6369L3.18813 18.6362L3.18784 18.6357L3.18232 18.6268C3.17697 18.618 3.16832 18.6037 3.15672 18.584C3.13353 18.5446 3.09859 18.4836 3.05472 18.4023C2.96694 18.2396 2.84368 17.9961 2.70737 17.6815C2.43447 17.0517 2.11121 16.1417 1.91434 15.0297C1.55509 13.0005 1.61455 10.2944 3.18276 7.36667C3.84285 8.51883 4.90153 10.3655 5.88835 12.0865ZM17.3554 16.8553L15.7284 19.6241C14.7336 21.3171 13.6661 23.1336 13.0001 24.2666C16.3269 24.1713 18.7021 22.8912 20.2799 21.5851C21.1446 20.8694 21.7705 20.1446 22.179 19.6008C22.383 19.3292 22.532 19.1037 22.6288 18.9484C22.6772 18.8708 22.7124 18.8108 22.7349 18.7715C22.7461 18.7519 22.7542 18.7375 22.7591 18.7286L22.7641 18.7194L22.7643 18.7189L22.7647 18.7182L22.7648 18.7181L22.765 18.7177L22.7656 18.7165C24.3549 15.7449 24.4324 13.1131 24.1216 11.23C23.9658 10.2857 23.7118 9.52739 23.4986 9.00856C23.412 8.79782 23.3323 8.62704 23.269 8.49984L23.2625 8.49982L22.3422 8.49821C21.5728 8.49695 20.5282 8.49544 19.4274 8.49443C18.4273 8.49351 17.3819 8.49301 16.4546 8.49349C16.5225 8.54464 16.588 8.59673 16.6514 8.6497C17.2379 9.13979 17.6157 9.68712 17.9442 10.1632L17.9997 10.2435L18.0188 10.2841C18.7352 11.8029 18.8 13.0677 18.669 13.9712C18.6115 14.3671 18.5172 14.6895 18.4273 14.9299C18.1964 15.6414 17.8289 16.2931 17.3554 16.8553ZM12.8122 8.86892C10.4253 8.86892 8.49333 10.8041 8.49333 13.1878C8.49333 15.5715 10.4285 17.5067 12.8122 17.5067C15.1991 17.5067 17.1311 15.5715 17.1311 13.1878C17.1311 10.8009 15.1959 8.86892 12.8122 8.86892Z" fill="#8B8BB8"/>
</svg>

<svg width="26" height="26" fill="none" xmlns="http://www.w3.org/2000/svg"><path fill-rule="evenodd" clip-rule="evenodd" d="M13.12 1.735h.012l.05-.001.205.001c.183.005.453.02.79.058.674.076 1.613.247 2.662.628 1.914.696 4.2 2.088 5.926 4.895H13.67a5.846 5.846 0 00-1.24 0l-.047.003a3.316 3.316 0 00-.317.032c-.265.04-.628.122-1.05.293a5.305 5.305 0 00-.293.129 5.833 5.833 0 00-3.411 4.476 2007.77 2007.77 0 01-2.869-5l-.453-.79-.003-.006c.08-.118.189-.273.33-.454.345-.444.878-1.045 1.622-1.655 1.484-1.216 3.81-2.476 7.18-2.609h.001zM5.889 12.086l1.443 2.516c.696 2.462 2.947 4.263 5.616 4.266.819 0 1.599-.17 2.306-.477a2116.478 2116.478 0 01-2.915 5.075l-.459.795-.003.006a7.938 7.938 0 01-.56-.06c-.56-.08-1.349-.245-2.252-.59-1.802-.688-4.065-2.093-5.874-4.978l-.001-.002-.001-.001-.006-.01a3.455 3.455 0 01-.127-.224 9.396 9.396 0 01-.348-.72c-.273-.63-.596-1.54-.793-2.652-.359-2.03-.3-4.736 1.269-7.663l2.705 4.72zm11.467 4.77l-1.627 2.768L13 24.267c3.327-.096 5.702-1.376 7.28-2.682.865-.716 1.49-1.44 1.899-1.984a9.208 9.208 0 00.556-.83l.024-.042.005-.01.001-.001v-.002c1.59-2.971 1.667-5.603 1.357-7.486a10.29 10.29 0 00-.623-2.221 7.807 7.807 0 00-.23-.51h-.926a4135.865 4135.865 0 00-5.888-.006c.068.052.133.104.196.157.587.49.965 1.037 1.293 1.513l.056.08.019.041c.716 1.519.781 2.784.65 3.687a4.651 4.651 0 01-.242.959 5.741 5.741 0 01-1.072 1.925zm-4.543-7.987a4.319 4.319 0 100 8.638 4.319 4.319 0 000-8.638z" fill="#8B8BB8"/></svg>
